icons/midnadark/actions/24/quickopen-function.svg

<?xml version="1.0" encoding="UTF-8" standalone="no"?>
<!-- Created with Inkscape (http://www.inkscape.org/) -->

<svg
   xmlns:osb="http://www.openswatchbook.org/uri/2009/osb"
   xmlns:dc="http://purl.org/dc/elements/1.1/"
   xmlns:cc="http://creativecommons.org/ns#"
   xmlns:rdf="http://www.w3.org/1999/02/22-rdf-syntax-ns#"
   xmlns:svg="http://www.w3.org/2000/svg"
   xmlns="http://www.w3.org/2000/svg"
   xmlns:sodipodi="http://sodipodi.sourceforge.net/DTD/sodipodi-0.dtd"
   xmlns:inkscape="http://www.inkscape.org/namespaces/inkscape"
   width="22"
   height="22"
   id="svg3869"
   version="1.1"
   inkscape:version="0.91 r13725"
   sodipodi:docname="quickopen-function.svg">
  <defs
     id="defs3871">
    <inkscape:perspective
       sodipodi:type="inkscape:persp3d"
       inkscape:vp_x="0 : 12 : 1"
       inkscape:vp_y="0 : 1000 : 0"
       inkscape:vp_z="24 : 12 : 1"
       inkscape:persp3d-origin="12 : 8 : 1"
       id="perspective4146" />
    <inkscape:perspective
       sodipodi:type="inkscape:persp3d"
       inkscape:vp_x="0 : 12 : 1"
       inkscape:vp_y="0 : 1000 : 0"
       inkscape:vp_z="24 : 12 : 1"
       inkscape:persp3d-origin="12 : 8 : 1"
       id="perspective4090" />
    <inkscape:perspective
       sodipodi:type="inkscape:persp3d"
       inkscape:vp_x="0 : 12 : 1"
       inkscape:vp_y="0 : 1000 : 0"
       inkscape:vp_z="24 : 12 : 1"
       inkscape:persp3d-origin="12 : 8 : 1"
       id="perspective4146-0" />
    <inkscape:perspective
       sodipodi:type="inkscape:persp3d"
       inkscape:vp_x="0 : 12 : 1"
       inkscape:vp_y="0 : 1000 : 0"
       inkscape:vp_z="24 : 12 : 1"
       inkscape:persp3d-origin="12 : 8 : 1"
       id="perspective4090-4" />
    <clipPath
       clipPathUnits="userSpaceOnUse"
       id="clipPath16">
      <path
         d="m 0,706.465 1490.926,0 L 1490.926,0 0,0 0,706.465 Z"
         id="path18"
         inkscape:connector-curvature="0" />
    </clipPath>
    <clipPath
       clipPathUnits="userSpaceOnUse"
       id="clipPath24">
      <path
         d="m 22.1953,686.117 1447.7347,0 0,-667.1902 -1447.7347,0 0,667.1902 z"
         id="path26"
         inkscape:connector-curvature="0" />
    </clipPath>
    <clipPath
       clipPathUnits="userSpaceOnUse"
       id="clipPath4534">
      <rect
         ry="15.999986"
         y="8.0000038"
         x="8.0000114"
         height="31.999971"
         width="31.999989"
         id="rect4536"
         style="fill:url(#linearGradient4538);fill-opacity:1;stroke:none" />
    </clipPath>
    <clipPath
       clipPathUnits="userSpaceOnUse"
       id="clipPath4584">
      <rect
         ry="15.999986"
         y="507.798"
         x="392.57144"
         height="31.999971"
         width="31.999989"
         id="rect4586"
         style="fill:url(#linearGradient4588);fill-opacity:1;stroke:none" />
    </clipPath>
    <clipPath
       clipPathUnits="userSpaceOnUse"
       id="clipPath4550">
      <rect
         ry="15.999986"
         y="507.798"
         x="392.57144"
         height="31.999971"
         width="31.999989"
         id="rect4552"
         style="fill:url(#linearGradient4554);fill-opacity:1;stroke:none" />
    </clipPath>
    <clipPath
       clipPathUnits="userSpaceOnUse"
       id="clipPath4568">
      <rect
         ry="15.999986"
         y="507.798"
         x="392.57144"
         height="31.999971"
         width="31.999989"
         id="rect4570"
         style="fill:url(#linearGradient4572);fill-opacity:1;stroke:none" />
    </clipPath>
    <clipPath
       clipPathUnits="userSpaceOnUse"
       id="clipPath4528">
      <rect
         ry="15.999986"
         y="8.0000038"
         x="8.0000114"
         height="31.999971"
         width="31.999989"
         id="rect4530"
         style="fill:url(#linearGradient4532);fill-opacity:1;stroke:none" />
    </clipPath>
    <clipPath
       clipPathUnits="userSpaceOnUse"
       id="clipPath4578">
      <rect
         ry="15.999986"
         y="507.798"
         x="392.57144"
         height="31.999971"
         width="31.999989"
         id="rect4580"
         style="fill:url(#linearGradient4582);fill-opacity:1;stroke:none" />
    </clipPath>
    <clipPath
       clipPathUnits="userSpaceOnUse"
       id="clipPath4562">
      <rect
         ry="15.999986"
         y="507.798"
         x="392.57144"
         height="31.999971"
         width="31.999989"
         id="rect4564"
         style="fill:url(#linearGradient4566);fill-opacity:1;stroke:none" />
    </clipPath>
    <clipPath
       clipPathUnits="userSpaceOnUse"
       id="clipPath4544">
      <rect
         ry="15.999986"
         y="507.798"
         x="392.57144"
         height="31.999971"
         width="31.999989"
         id="rect4546"
         style="fill:url(#linearGradient4548);fill-opacity:1;stroke:none" />
    </clipPath>
    <clipPath
       clipPathUnits="userSpaceOnUse"
       id="clipPath4390">
      <rect
         ry="15.999986"
         y="8.0000038"
         x="8.0000114"
         height="31.999971"
         width="31.999989"
         id="rect4392"
         style="fill:url(#linearGradient4532);fill-opacity:1;stroke:none" />
    </clipPath>
    <clipPath
       clipPathUnits="userSpaceOnUse"
       id="clipPath4407">
      <rect
         ry="15.999986"
         y="507.798"
         x="392.57144"
         height="31.999971"
         width="31.999989"
         id="rect4409"
         style="fill:url(#linearGradient4582);fill-opacity:1;stroke:none" />
    </clipPath>
    <clipPath
       clipPathUnits="userSpaceOnUse"
       id="clipPath4424">
      <rect
         ry="15.999986"
         y="507.798"
         x="392.57144"
         height="31.999971"
         width="31.999989"
         id="rect4426"
         style="fill:url(#linearGradient4566);fill-opacity:1;stroke:none" />
    </clipPath>
    <clipPath
       clipPathUnits="userSpaceOnUse"
       id="clipPath4441">
      <rect
         ry="15.999986"
         y="507.798"
         x="392.57144"
         height="31.999971"
         width="31.999989"
         id="rect4443"
         style="fill:url(#linearGradient4548);fill-opacity:1;stroke:none" />
    </clipPath>
    <clipPath
       id="clipPath4528-1"
       clipPathUnits="userSpaceOnUse">
      <rect
         style="fill:url(#linearGradient4532);fill-opacity:1;stroke:none"
         id="rect4530-7"
         width="31.999989"
         height="31.999971"
         x="8.0000114"
         y="8.0000038"
         ry="15.999986" />
    </clipPath>
    <clipPath
       id="clipPath4578-8"
       clipPathUnits="userSpaceOnUse">
      <rect
         style="fill:url(#linearGradient4582);fill-opacity:1;stroke:none"
         id="rect4580-7"
         width="31.999989"
         height="31.999971"
         x="392.57144"
         y="507.798"
         ry="15.999986" />
    </clipPath>
    <clipPath
       id="clipPath4562-8"
       clipPathUnits="userSpaceOnUse">
      <rect
         style="fill:url(#linearGradient4566);fill-opacity:1;stroke:none"
         id="rect4564-8"
         width="31.999989"
         height="31.999971"
         x="392.57144"
         y="507.798"
         ry="15.999986" />
    </clipPath>
    <clipPath
       id="clipPath4544-1"
       clipPathUnits="userSpaceOnUse">
      <rect
         style="fill:url(#linearGradient4548);fill-opacity:1;stroke:none"
         id="rect4546-1"
         width="31.999989"
         height="31.999971"
         x="392.57144"
         y="507.798"
         ry="15.999986" />
    </clipPath>
    <linearGradient
       osb:paint="gradient"
       id="linearGradient4207">
      <stop
         id="stop3371"
         offset="0"
         style="stop-color:#3498db;stop-opacity:1;" />
      <stop
         id="stop3373"
         offset="1"
         style="stop-color:#3498db;stop-opacity:0;" />
    </linearGradient>
    <linearGradient
       id="linearGradient3257">
      <stop
         id="stop3259"
         style="stop-color:#a50000;stop-opacity:1"
         offset="0" />
      <stop
         id="stop3261"
         style="stop-color:#e73800;stop-opacity:1"
         offset="1" />
    </linearGradient>
  </defs>
  <sodipodi:namedview
     id="base"
     pagecolor="#ffffff"
     bordercolor="#666666"
     borderopacity="1.0"
     inkscape:pageopacity="0.0"
     inkscape:pageshadow="2"
     inkscape:zoom="7.9999997"
     inkscape:cx="-2.5656937"
     inkscape:cy="11.236558"
     inkscape:document-units="px"
     inkscape:current-layer="layer1-5"
     showgrid="true"
     fit-margin-top="0"
     fit-margin-left="0"
     fit-margin-right="0"
     fit-margin-bottom="0"
     inkscape:window-width="1366"
     inkscape:window-height="633"
     inkscape:window-x="0"
     inkscape:window-y="33"
     inkscape:window-maximized="1"
     inkscape:showpageshadow="false"
     inkscape:object-nodes="true"
     inkscape:snap-bbox="true">
    <inkscape:grid
       type="xygrid"
       id="grid4132" />
    <sodipodi:guide
       position="4,18"
       orientation="18,0"
       id="guide4138" />
    <sodipodi:guide
       position="5,3"
       orientation="0,18"
       id="guide4140" />
    <sodipodi:guide
       position="20,2.0000174"
       orientation="-18,0"
       id="guide4142" />
    <sodipodi:guide
       position="2,21"
       orientation="0,-18"
       id="guide4144" />
    <sodipodi:guide
       position="3,19.000017"
       orientation="16,0"
       id="guide4146" />
    <sodipodi:guide
       position="2,4"
       orientation="0,16"
       id="guide4148" />
    <sodipodi:guide
       position="21,20"
       orientation="-16,0"
       id="guide4150" />
  </sodipodi:namedview>
  <metadata
     id="metadata3874">
    <rdf:RDF>
      <cc:Work
         rdf:about="">
        <dc:format>image/svg+xml</dc:format>
        <dc:type
           rdf:resource="http://purl.org/dc/dcmitype/StillImage" />
        <dc:title />
      </cc:Work>
    </rdf:RDF>
  </metadata>
  <g
     inkscape:label="Capa 1"
     inkscape:groupmode="layer"
     id="layer1"
     transform="translate(-326,-534.3622)">
    <g
       transform="translate(-224.28571,-74.28568)"
       id="layer1-5"
       inkscape:label="Capa 1">
      <g
         id="g4331"
         transform="matrix(0.98770003,0,0,0.98770003,5.9506946,8.7077501)"
         style="fill:#ffffff;fill-opacity:1">
        <path
           sodipodi:nodetypes="ccccccccccccccccccc"
           inkscape:connector-curvature="0"
           style="fill:#ffffff;fill-rule:evenodd;stroke:none;stroke-width:1px;stroke-linecap:butt;stroke-linejoin:miter;stroke-opacity:1;fill-opacity:1"
           d="m 11,11.973553 0,6.032505 C 11,18.006058 10.98229,19 11.970991,19 l 6.032505,0 C 18.003496,19 19,18.991502 19,17.983961 l 0,-6.032505 C 19,11.951456 19.022669,11 18.08,11 l -6.086912,0 C 12,11 11,10.984365 11,11.973553 Z M 4,16 l 0,1 3,0 0,-1 z m 2,2 0,1 4,0 0,-1 z"
           transform="translate(551.28571,607.64788)"
           id="path4146" />
        <g
           inkscape:label="Capa 1"
           id="layer1-8"
           transform="translate(207.96567,77.984214)"
           style="fill:#ffffff;fill-opacity:1">
          <g
             id="layer1-74"
             inkscape:label="Capa 1"
             transform="matrix(2.2,0,0,2.2,-405.6,-653.23464)"
             style="fill:#ffffff;fill-opacity:1">
            <g
               inkscape:label="Capa 1"
               id="layer1-5-6"
               transform="matrix(0.66666666,0,0,0.66666666,70.952385,189.83024)"
               style="fill:#ffffff;fill-opacity:1">
              <g
                 id="g4369"
                 transform="translate(27.682101,0.12839698)"
                 style="fill:#ffffff;fill-opacity:1">
                <g
                   id="g4382-1"
                   transform="translate(22.659906,-5.9301729)"
                   style="fill:#ffffff;fill-opacity:1" />
                <g
                   id="g4486-5"
                   transform="matrix(0.97603016,0,0,-0.97603016,8.9380976,1042.0695)"
                   style="fill:#ffffff;fill-opacity:1">
                  <g
                     id="g4830"
                     transform="translate(0,2.1929912e-5)"
                     style="fill:#ffffff;fill-opacity:1">
                    <g
                       id="g4303"
                       transform="matrix(1.0245585,0,0,-1.0245585,-9.1576049,1067.6612)"
                       style="fill:#ffffff;fill-opacity:1">
                      <g
                         inkscape:label="Capa 1"
                         id="layer1-28"
                         transform="matrix(1.5,0,0,1.5,360.88933,-1034.8737)"
                         style="fill:#ffffff;fill-opacity:1">
                        <g
                           transform="translate(-412.88298,512.00351)"
                           id="layer1-4"
                           inkscape:label="Capa 1"
                           style="fill:#ffffff;fill-opacity:1">
                          <g
                             style="fill:#ffffff;fill-opacity:1"
                             inkscape:label="Capa 1"
                             id="layer1-7"
                             transform="translate(392.57143,-514.5642)" />
                          <g
                             transform="translate(341.79698,500.25245)"
                             id="g4240"
                             style="fill:#ffffff;fill-opacity:1">
                            <g
                               transform="translate(-392.98822,-511.27795)"
                               id="layer1-1"
                               inkscape:label="Capa 1"
                               inkscape:transform-center-x="5.4653607"
                               inkscape:transform-center-y="-9.4924686"
                               style="fill:#ffffff;fill-opacity:1">
                              <g
                                 transform="matrix(1.3333333,0,0,1.3333333,-61.890355,-165.99713)"
                                 id="layer1-15"
                                 inkscape:label="Capa 1"
                                 style="fill:#ffffff;fill-opacity:1">
                                <g
                                   style="fill:#ffffff;fill-opacity:1"
                                   inkscape:label="Capa 1"
                                   id="layer1-7-8"
                                   transform="translate(392.57143,-514.5642)" />
                                <g
                                   transform="translate(341.79698,500.25245)"
                                   id="g4240-4"
                                   style="fill:#ffffff;fill-opacity:1">
                                <g
                                   transform="translate(-392.98822,-511.27795)"
                                   id="layer1-1-5"
                                   inkscape:label="Capa 1"
                                   inkscape:transform-center-x="5.4653607"
                                   inkscape:transform-center-y="-9.4924686"
                                   style="fill:#ffffff;fill-opacity:1">
                                <g
                                   style="stroke:#1f2a47;stroke-opacity:1;fill:#ffffff;fill-opacity:1"
                                   transform="translate(0.41988239,0.03484499)"
                                   inkscape:label="Capa 1"
                                   id="layer1-3-8">
                                <g
                                   id="g4186"
                                   transform="translate(440.36158,509.62534)"
                                   style="fill:#ffffff;fill-opacity:1">
                                <g
                                   id="g4186-3"
                                   transform="matrix(0.52109202,0,0,0.52109202,-0.76995909,19.353185)"
                                   style="stroke:#1f2a47;stroke-opacity:1;fill:#ffffff;fill-opacity:1">
                                <g
                                   id="layer1-3-6"
                                   inkscape:label="Capa 1"
                                   transform="translate(-400.50475,-509.14629)"
                                   style="fill:#ffffff;fill-opacity:1">
                                <g
                                   transform="matrix(1.0037077,0,0,1.0037077,11.267145,17.846026)"
                                   id="layer1-2"
                                   inkscape:label="Capa 1"
                                   style="fill:#ffffff;fill-opacity:1">
                                <g
                                   id="g4414-9"
                                   transform="matrix(1.5263052,0,0,1.5263052,376.49864,-1040.1735)"
                                   style="fill:#ffffff;fill-opacity:1">
                                <g
                                   transform="matrix(1.1526351,0,0,1.1526351,-4.8344134,-156.43331)"
                                   id="g4180"
                                   style="fill:#ffffff;fill-opacity:1">
                                <g
                                   id="g4186-6"
                                   transform="matrix(0.56841663,0,0,0.56841663,10.426663,1005.5718)"
                                   style="fill:#ffffff;fill-opacity:1" />
                                <g
                                   id="g4280"
                                   style="fill:#ffffff;fill-opacity:1">
                                <g
                                   transform="matrix(0.81509151,0,0,0.81509151,-323.19965,584.90903)"
                                   id="layer1-43"
                                   inkscape:label="Capa 1"
                                   style="fill:#ffffff;fill-opacity:1">
                                <g
                                   style="fill:#ffffff;fill-opacity:1"
                                   inkscape:label="Capa 1"
                                   id="layer1-7-3"
                                   transform="translate(392.57143,-514.5642)" />
                                <g
                                   transform="translate(341.79698,500.25245)"
                                   id="g4240-2"
                                   style="fill:#ffffff;fill-opacity:1">
                                <g
                                   transform="translate(-392.98822,-511.27795)"
                                   id="layer1-1-56"
                                   inkscape:label="Capa 1"
                                   inkscape:transform-center-x="5.4653607"
                                   inkscape:transform-center-y="-9.4924686"
                                   style="fill:#ffffff;fill-opacity:1">
                                <g
                                   style="stroke:#1f2a47;stroke-opacity:1;fill:#ffffff;fill-opacity:1"
                                   transform="translate(0.41988239,0.03484499)"
                                   inkscape:label="Capa 1"
                                   id="layer1-3-1">
                                <g
                                   id="g4186-1"
                                   transform="translate(440.36158,509.62534)"
                                   style="fill:#ffffff;fill-opacity:1">
                                <g
                                   id="g4186-3-9"
                                   transform="matrix(0.52109202,0,0,0.52109202,-0.76995909,19.353185)"
                                   style="stroke:#1f2a47;stroke-opacity:1;fill:#ffffff;fill-opacity:1">
                                <g
                                   id="layer1-3-6-6"
                                   inkscape:label="Capa 1"
                                   transform="translate(-400.50475,-509.14629)"
                                   style="fill:#ffffff;fill-opacity:1">
                                <g
                                   transform="matrix(0.76761933,0,0,0.76761933,156.46876,138.50552)"
                                   id="g4162"
                                   style="stroke:none;fill:#ffffff;fill-opacity:1">
                                <g
                                   transform="translate(-0.71741557,0.01714041)"
                                   inkscape:label="Capa 1"
                                   id="layer1-7-4-3"
                                   style="fill:#ffffff;fill-opacity:1;stroke:none" />
                                <g
                                   id="g4241"
                                   style="fill:#ffffff;fill-opacity:1" />
                                </g>
                                </g>
                                </g>
                                </g>
                                </g>
                                </g>
                                </g>
                                </g>
                                </g>
                                </g>
                                </g>
                                </g>
                                </g>
                                </g>
                                </g>
                                </g>
                                </g>
                                </g>
                              </g>
                            </g>
                          </g>
                        </g>
                      </g>
                    </g>
                    <g
                       id="g3"
                       transform="matrix(0.0251118,0,0,-0.0251118,366.74154,529.08232)"
                       style="fill:#ffffff;fill-opacity:1;stroke:none" />
                  </g>
                  <g
                     transform="matrix(0.63644685,0,0,-0.63644685,365.84707,1180.0248)"
                     id="layer1-6-6"
                     inkscape:label="Capa 1"
                     style="fill:#ffffff;fill-opacity:1;stroke:none" />
                </g>
              </g>
            </g>
            <g
               transform="matrix(0.83333333,0,0,0.83333333,43.854273,92.294118)"
               inkscape:label="Capa 1"
               id="layer1-49"
               style="fill:#ffffff;fill-opacity:1">
              <g
                 transform="translate(327,-497)"
                 id="layer1-0"
                 inkscape:label="Capa 1"
                 style="fill:#ffffff;fill-opacity:1">
                <path
                   sodipodi:nodetypes="ccccccc"
                   id="path4154"
                   d="m 33.16518,1032.992 -2.690341,3.2728 1.815455,0.9822 -0.470284,2.2905 2.690341,-3.2727 -1.815455,-0.9823 z"
                   style="fill:#ffffff;fill-opacity:1;stroke:none"
                   inkscape:connector-curvature="0" />
              </g>
            </g>
          </g>
        </g>
      </g>
    </g>
  </g>
</svg>

<svg xmlns="http://www.w3.org/2000/svg" viewBox="0 0 22 22"><defs><clipPath><rect y="8" x="8" height="32" width="32" fill="none" rx="16"/></clipPath><clipPath><rect y="507.8" x="392.57" height="32" width="32" fill="none" rx="16"/></clipPath><clipPath><rect width="32" height="32" x="392.57" y="507.8" fill="none" rx="16"/></clipPath><clipPath><rect y="507.8" x="392.57" height="32" width="32" fill="none" rx="16"/></clipPath><clipPath><rect y="507.8" x="392.57" height="32" width="32" fill="none" rx="16"/></clipPath><clipPath><rect width="32" height="32" x="392.57" y="507.8" fill="none" rx="16"/></clipPath><clipPath><rect width="32" height="32" x="8" y="8" fill="none" rx="16"/></clipPath><clipPath><rect width="32" height="32" x="392.57" y="507.8" fill="none" rx="16"/></clipPath><clipPath><rect y="507.8" x="392.57" height="32" width="32" fill="none" rx="16"/></clipPath><clipPath><rect y="507.8" x="392.57" height="32" width="32" fill="none" rx="16"/></clipPath><clipPath><rect y="8" x="8" height="32" width="32" fill="none" rx="16"/></clipPath><clipPath><path d="m0 706.47h1490.93v-706.47h-1490.93v706.47"/></clipPath><clipPath><path d="m22.2 686.12h1447.73v-667.19h-1447.73v667.19"/></clipPath><clipPath><rect y="507.8" x="392.57" height="32" width="32" fill="none" rx="16"/></clipPath><clipPath><rect y="507.8" x="392.57" height="32" width="32" fill="none" rx="16"/></clipPath><clipPath><rect y="507.8" x="392.57" height="32" width="32" fill="none" rx="16"/></clipPath><clipPath><rect y="507.8" x="392.57" height="32" width="32" fill="none" rx="16"/></clipPath><clipPath><rect y="8" x="8" height="32" width="32" fill="none" rx="16"/></clipPath></defs><g transform="matrix(.9877 0 0 .9877-544.34-599.94)" fill="#fff"><path d="m11 11.974v6.03c0 0-.018.994.971.994h6.03c0 0 .997-.008.997-1.016v-6.03c0 0 .023-.951-.92-.951h-6.087c.007 0-.993-.016-.993.974m-7 4.03v1h3v-1zm2 2v1h4v-1z" transform="translate(551.29 607.65)" fill-rule="evenodd"/><path d="m33.17 1032.99l-2.69 3.273 1.815.982-.47 2.291 2.69-3.273-1.815-.982z" transform="matrix(1.83333 0 0 1.83333 498.35-1283.37)"/></g></svg>
